X: 10702
T: CALEDONIAN QUADRILLES #2
C: Arranged by W.B. Laybourn
R: jig
B: K\"ohler's Violin Repository, v.1, 1885 p.70 #2
F: http://www.archive.org/details/klersviolinrepos01edin
Z: 2012 John Chambers <jc:trillian.mit.edu>
M: 6/8
L: 1/8
K: D
u(A/G/) !segno!|\
F>GA (A<f)ue | (d<B)vB B>AG | F>GA Ade | f<dd d>AG |\
F>GA (A<f)ue | (d<B)vB B>AG | F>GA A>de | f<dd d2 :|
vd/ue/ |\
f>df agf | eBc d2d/e/ | f>gf ede | fdB B2d/e/ |\
f>df agf | eBc d2d/e/ | f>gf ede | f<dB B>AG !segno!"_D.C."|]

%%sep 2 1 500

